X: 14862
T: Garrett Barry's
R: jig
M: 6/8
K: Dmixolydian
|:DEF GFG|AGA c2A|dcA d2e|=fed cAG|
FEF GFG|AGA cd e|dcA GEA|1 DED D2 C:|2 DED D2 A||
|:dcA d2e|=fed eg e|dcA c2d|~e3 ecA|
dcA d2e|=fed eg e|dcA GEA|1 DED D2 A:|2 DED D2 C||

